X:10633
T:Vassr\aafela
C:anon., arr. Frank Nordberg
O:Norway
A:Gudbrandsdalen
Z:Transcribed by Frank Nordberg - http://www.musicaviva.com
F:http://abc.musicaviva.com/tunes/norway/vassrafela-dm/vassrafela-dm-ddad1.abc
%Posted 12 May 1999 at abcusers during a discussion about
%non-standard time signatures
V:1 Program 1 25 up %Acoustic guitar
V:2 Program 1 25 merge down %Acoustic guitar
M:none
L:1/8
Q:1/4=50
K:Ddor
V:1
aa gf [Ae]c|d4::Ad df ec|d4:|
V:2
[D,4D4A4]D2-|DADA::D6-|DADA:|
%
V:1
a2-a/g/f/g/|ac' bg|a4|[E2c2g2-]g/f/e/d/ ec|d4|]
V:2
[D,4-D4-A4-]|[D,4-D4-A4-]|[D,DA]ADA|D,6-|D,ADD,|]
W:
W:Vassr\aafela var t\aa tre.
W:Djupt i ljosna sakk ho ned.
W:I ei br\aato fanns ho att,
W:Sia let ho dag og natt.
W:  Su-di-du-di-du-di-dei-da,
W:  Su-di-du-di-dei-da.
W:
W:
W:  From Musica Viva - http://www.musicaviva.com
W:  the Internet center for free sheet music downloads.

